assets/icons/erectile-dysfunction.svg

<svg width="24" height="25" viewBox="0 0 24 25" fill="none" xmlns="http://www.w3.org/2000/svg">
<path d="M20.6475 14.5414C21.255 14.5414 21.75 15.1039 21.75 15.7114C21.75 15.7751 21.7463 15.8389 21.735 15.8989L21.7313 15.9101C21.7275 15.936 21.72 15.9627 21.7163 15.9889L20.43 21.8877L20.4187 21.9439C20.3612 22.1859 20.2236 22.4012 20.0282 22.5551C19.8329 22.7089 19.5912 22.7922 19.3425 22.7914C19.2563 22.7914 19.1737 22.7801 19.095 22.7614C18.9825 22.7389 18.8813 22.6977 18.7837 22.6414L13.4063 20.5301L13.3913 20.5227C12.9675 20.3689 12.75 19.9639 12.75 19.4877C12.75 18.8801 13.155 18.3851 13.7663 18.3851C13.86 18.3851 13.95 18.4001 14.04 18.4189V18.4227C14.1296 18.4455 14.2125 18.4755 14.2913 18.5205L14.295 18.5243L16.8034 19.5105C16.0913 17.2455 14.7334 15.5543 13.4663 14.3843L13.4284 14.388C12.2002 15.4556 10.6273 16.0429 9.00002 16.0414C5.27252 16.0414 2.25002 13.0189 2.25002 9.29139C2.25002 5.56388 5.27252 2.54138 9.00002 2.54138C12.7275 2.54138 15.75 5.56388 15.75 9.29139C15.75 10.4164 15.4725 11.4739 14.985 12.4077L15.0225 12.4268C16.4213 13.6193 18.1691 15.5764 18.9413 18.348L19.6054 15.348V15.3439C19.755 14.9164 20.1675 14.5414 20.6475 14.5414ZM9.00002 4.79138C6.51377 4.79138 4.50002 6.80514 4.50002 9.29139C4.50002 11.7777 6.51377 13.7914 9.00002 13.7914C11.4863 13.7914 13.5 11.7777 13.5 9.29139C13.5 6.80514 11.4863 4.79138 9.00002 4.79138Z" fill="white"/>
</svg>

<svg xmlns="http://www.w3.org/2000/svg" width="24" height="25" fill="none" viewBox="0 0 24 25"><path fill="#fff" d="M20.648 14.541c.607 0 1.102.563 1.102 1.17q0 .097-.015.188l-.004.011-.015.079-1.286 5.899-.011.056a1.1 1.1 0 0 1-1.324.817 1 1 0 0 1-.311-.12l-5.378-2.11-.015-.008c-.424-.154-.641-.56-.641-1.035 0-.608.405-1.103 1.016-1.103.094 0 .184.015.274.034v.004a1 1 0 0 1 .251.098l.004.003 2.508.986c-.712-2.265-2.07-3.956-3.337-5.126l-.038.004a6.75 6.75 0 1 1 2.322-5.097 6.7 6.7 0 0 1-.765 3.117l.038.019c1.398 1.192 3.146 3.15 3.918 5.921l.664-3v-.004c.15-.428.563-.803 1.043-.803M9 4.791a4.5 4.5 0 0 0-4.5 4.5c0 2.487 2.014 4.5 4.5 4.5s4.5-2.013 4.5-4.5-2.014-4.5-4.5-4.5"/></svg>
